!!!COM: Bach, Johann Sebastian
!!!OTA: Das wohltemperirte Clavier
!!!OPR: Das wohltemperierte Klavier
!!!OTL: Fuga 10, Vol. 1
!!!XEN: The Well-Tempered Clavier, Volume 1, Fugue 10.
!!!ONB: E minor, 2-part
!!!SCT: BWV 855b
!!!YEC: Copyright 1994, David Huron
!!!YEM: Rights to all derivative electronic formats reserved.
**kern	**kern
*staff2	*staff1
*clefF4	*clefG2
*k[f#]	*k[f#]
*M3/4	*M3/4
*e:	*e:
*MM102	*MM102
=1	=1
2.r	16e
.	16g
.	16b
.	16ee
.	16dd#
.	16ee
.	16ddn
.	16ee
.	16cc#
.	16ee
.	16ccn
.	16ee
=2	=2
2.r	16b
.	16ee
.	16dd#
.	16ee
.	16a#
.	16cc#
.	16g
.	16f#
.	16g
.	16a#
.	16f#
.	16e
=3	=3
16BB	8d
16D	.
16F#	8b
16B	.
16A#	16r
16B	16ff#
16An	16gg
16B	16ff#
16G#	16ee
16B	16dd
16Gn	16cc#
16B	16ee
=4	=4
16F#	[4dd
16B	.
16A#	.
16B	.
16E#	16dd]
16G#	16cc#
16D	16b
16C#	16a#
16D	16b
16E#	16cc#
16C#	16a#
16BB	16b
=5	=5
8AA#	16cc#
.	16f#
8F#	16a#
.	16cc#
16r	16ee
16f#	16a#
16g	16cc#
16f#	16ee
16e	16gg
16d	16ff#
16c#	16ee
16e	16gg
=6	=6
[4d	16ff#
.	16ee
.	16dd
.	16cc#
16d]	16b
16c#	16a#
16B	16g#
16A#	16f#
16B	[4dd
16c#	.
16An	.
16B	.
=7	=7
8GG#	16dd]
.	16e
8E	16g#
.	16b
16r	16dd
16e	16g#
16fn	16b
16e	16dd
16d	16ffn
16c	16ee
16B	16dd
16d	16ff
=8	=8
[4c	16ee
.	16dd
.	16cc
.	16b
16c]	16a
16B	16g#
16A	16f#
16G#	16e
16A	[4cc
16B	.
16Gn	.
16A	.
=9	=9
8FF#	16cc]
.	16a
8D	16d
.	16e
16r	16f#
16E	16g
16F#	16a
16G	16b
16A	16cc
16B	16dd
16c	16ee
16A	16ff#
=10	=10
16B	16gg
16A	16ff#
16c	16aa
16B	16gg
16A	16ff#
16G	16ee
16F#	16dd
16E	16cc
16D	16b
16E	16gg
16C	16a
16D	16ff#
=11	=11
8BB	16g
.	16b
8G	16dd
.	16gg
16r	16ff#
16d	16gg
16e	16ffn
16d	16gg
16c	16ee
16B	16gg
16A	16ee-
16c	16gg
=12	=12
[4B	16dd
.	16gg
.	16ff#
.	16gg
16B]	16cc#
16A	16ee
16G	16b-
16F#	16a
16G	16b-
16F#	16cc#
16G	16a
16A	16g
=13	=13
16D	8f#
16F#	.
16A	8dd
16d	.
16c#	16r
16d	16aa
16cn	16bb
16d	16aa
16B	16gg
16d	16ff#
16B-	16ee
16d	16gg
=14	=14
16A	[4ff#
16d	.
16c#	.
16d	.
16G#	16ff#]
16B	16ee
16Fn	16dd
16E	16cc#
16F	16dd
16G#	16ee
16E	16cc#
16D	16dd
=15	=15
8C#	16ee
.	16dd
8AA	16cc#
.	16b
8C#	16a
.	16g#
8E	16ee
.	16dd
8A	16cc#
.	16b
8C#	16a
.	16gn
=16	=16
16A	8f#
16G	.
16F#	8d
16E	.
16D	8f#
16C#	.
16A	8a
16G	.
16F#	8dd
16E	.
16D	8f#
16Cn	.
=17	=17
8BB	16dd
.	16cc
8GG	16b
.	16a
8BB	16g
.	16f#
8D	16dd
.	16cc
8G	16b
.	16a
8BB	16g
.	16fn
=18	=18
16G	8e
16Fn	.
16E	8c
16D	.
16C	8e
16BB	.
16G	8g
16F	.
16E	8cc
16D	.
16C	8e
16BB	.
=19	=19
16E	16ee
16D	16dd
16C	16cc
16BB	16b
16AA	16a
16GG#	16g#
16E	16ee
16D	16dd
16C	16cc
16BB	16b
16AA	16a
16GG#	16g#
=20	=20
16AA	16a
16C	16cc
16E	16ee
16A	16aa
16G#	16r
16A	16ee
16Gn	16ffn
16A	16ee
16F#	16dd
16A	16cc
16Fn	16b
16A	16dd
=21	=21
16E	[4cc
16A	.
16G#	.
16A	.
16D#	16cc]
16F#	16b
16C	16a
16BB	16g#
16C	16a
16D#	16f#
16BB	16d#
16AA	16b
=22	=22
8GG	16e
.	16g
8E	16b
.	16ee
16r	16dd#
16B	16ee
16c	16ddn
16B	16ee
16A	16cc#
16G	16ee
16F#	16ccn
16A	16ee
=23	=23
[4G	16b
.	16ee
.	16dd#
.	16ee
16G]	16a#
16F#	16cc#
16E	16g
16D#	16f#
16E	16g
16F#	16a#
16D#	16f#
16E	16e
=24	=24
16F#	8d#
16BB	.
16D#	8b
16F#	.
16A	16r
16D#	16bb
16F#	16ccc
16A	16bb
16c	16aa
16B	16gg
16A	16ff#
16c	16aa
=25	=25
16B	[4gg
16A	.
16G	.
16F#	.
16E	16gg]
16D#	16ff#
16C#	16ee
16BB	16dd#
[4G	16ee
.	16ff#
.	16ddn
.	16ee
=26	=26
16G]	8cc#
16AA	.
16C#	8aa
16E	.
16G	16r
16C#	16aa
16E	16bb-
16G	16aa
16B-	16gg
16A	16ffn
16G	16ee
16B-	16gg
=27	=27
16A	[4ffn
16G	.
16Fn	.
16E	.
16D	16ff]
16C#	16ee
16BB	16dd
16AA	16cc#
[4Fn	16dd
.	16ee
.	16ccn
.	16dd
=28	=28
16F]	8b
16D	.
16GG	8gg
16AA	.
16BB	16r
16C	16a
16D	16b
16E	16cc
16Fn	16dd
16G	16ee
16A	16ffn
16B	16dd
=29	=29
16c	16ee
16B	16dd
16e	16gg
16d	16ffn
16c#	16ee
16B-	16dd
16A	16cc#
16G	16b-
16Fn	16a
16d	16b-
16E	16g
16c#	16a
=30	=30
16D	8fn
16Fn	.
16A	8dd
16d	.
16c#	16r
16d	16aa
16cn	16bb-
16d	16aa
16B	16gg
16d	16ffn
16B-	16ee
16d	16gg
=31	=31
16A	[4ffn
16d	.
16c#	.
16d	.
16G#	16ff]
16B	16ee
16Fn	16dd
16E	16cc
16F	16dd
16G#	16cc
16E	16dd
16D	16ee
=32	=32
8C	16a
.	16cc
8A	16ee
.	16aa
16r	16gg#
16e	16aa
16fn	16ggn
16e	16aa
16d	16ff#
16c	16aa
16B	16ffn
16d	16aa
=33	=33
[4c	16ee
.	16aa
.	16gg#
.	16aa
16c]	16dd#
16B	16ff#
16A	16cc
16G#	16b
16A	16cc
16F#	16dd#
16D#	16b
16F#	16a
=34	=34
16B	8g#
16A	.
16G#	8e
16F#	.
16E	8g#
16D#	.
16B	8b
16A	.
16G#	8ee
16F#	.
16E	8g#
16Dn	.
=35	=35
8C#	16ee
.	16dd
8AA	16cc#
.	16b
8C#	16a
.	16g#
8E	16ee
.	16dd
8A	16cc#
.	16b
8C#	16a
.	16gn
=36	=36
16A	8f#
16G	.
16F#	8d
16E	.
16D	8f#
16C#	.
16A	8a
16G	.
16F#	8dd
16E	.
16D	8f#
16Cn	.
=37	=37
8BB	16dd
.	16cc
8GG	16b
.	16a
8BB	16g
.	16f#
8D	16dd
.	16cc
8G	16b
.	16a
8BB	16g
.	16f#
=38	=38
16B	16b
16A	16a
16G	16g
16F#	16f#
16E	16e
16D#	16d#
16B	16b
16A	16a
16G	16g
16F#	16f#
16E	16e
16D#	16d#
=39	=39
16E	16e
16BB	16g
16GG	16b
16EE	16ee
16r	16dd#
16B	16ee
16c	16ddn
16B	16ee
16A	16cc#
16G	16ee
16A	16ccn
16F#	16ee
=40	=40
16G	16b
16F#	16a
16E	16g
16e	16cc
16d#	16b
16e	16a
16dn	16b
16e	16g#
16c#	16a
16e	16gn
16cn	16a
16e	16f#
=41	=41
8B	16g
.	16f#
8A	16g
.	16a
8B	16d#
.	16f#
8r	16c
.	16B
8BB	16c
.	16d#
8r	16B
.	16A
=42	=42
8EE	{32G#
.	32B
.	16e}
8r	8r
4r	4r
4r	4r
==	==
*-	*-
!!!CDT: 1685/3/-1750/7/28
!!!OCY: Deutschland
!!!PPP: Coethen; Cothen; Co2then
!!!ODT: <1722//
!!!PDT: 1722
!!!AFR: fuga; fugue
!!!AST: polyphony
!!!AMT: simple triple
!!!SCA: Bach-Werke-Verzeichnis
!!!YOR: Bach Gesellschaft
!!!SMS: British Library, various
!!!AIN: cemba; clavi
!!!EEV: 1.0
!!!RDT: 1986 November 18
!!!YER: 1994 August 10
!!!EFL: 10/48
!!!VTS: 3129988745
